bonus-icons/wick-2.svg

<svg viewBox="0 0 20 30" xmlns="http://www.w3.org/2000/svg"><path d="m11.8 23.4-1.8.4a1 1 0 0 1 -1.2-.8l-2.5-11.7h-.3a1 1 0 0 0 -1.2.7l-2.6 12c-.1.6.2 1.1.8 1.2l7 1.6a1 1 0 0 0 1.2-.8zm-11.8 5.6v-22l.3-.3c.4-.4.4-1 0-1.4l-.3-.3v-4c0-.6.4-1 1-1h18c.6 0 1 .4 1 1v4l-.3.3a1 1 0 0 0 0 1.4l.3.3v22c0 .6-.4 1-1 1h-18a1 1 0 0 1 -1-1zm11.8-5.6 5.2-1.2c.6-.1 1-.6.8-1.2l-2.6-12a1 1 0 0 0 -1.2-.8l-7 1.6a1 1 0 0 0 -.8 1.2v.3l6.8 1.5c.6.1 1 .6.8 1.2z" fill-rule="evenodd"/></svg>

<svg xmlns="http://www.w3.org/2000/svg" viewBox="0 0 20 30">
  <path fill="#000" fill-rule="evenodd" d="M11.8 23.4l-1.8.4a1 1 0 0 1-1.2-.8L6.3 11.3H6a1 1 0 0 0-1.2.7L2.2 24c-.1.6.2 1.1.8 1.2l7 1.6a1 1 0 0 0 1.2-.8l.6-2.6zM0 29V7l.3-.3c.4-.4.4-1 0-1.4L0 5V1c0-.6.4-1 1-1h18c.6 0 1 .4 1 1v4l-.3.3a1 1 0 0 0 0 1.4l.3.3v22c0 .6-.4 1-1 1H1a1 1 0 0 1-1-1zm11.8-5.6l5.2-1.2c.6-.1 1-.6.8-1.2L15.2 9a1 1 0 0 0-1.2-.8L7 9.8a1 1 0 0 0-.8 1.2v.3l6.8 1.5c.6.1 1 .6.8 1.2l-2 9.4z"/>
</svg>
